X:11
T:Hollin Bush
M:6/8
L:1/8
K:D
A,B,D DEF|EFE EDB,|A,B,D DEF|DED     DB,A,|A,B,D DEF|E2E EFA|B2d AFd|DED DB,A,:|
ABd   def|efe edB |ABd   def|d>ef/g/ agf  |gab   agf|efe edc|dcB AFd|DED DB,A,:|

% @@@@@@@@@@@@@@@@@@@@@@@@@@@@@@@@@@

%% 12. ===============================================================================

% &Caberfei.&
%
% *RIGHT hands across, then left hands across, lead down in the middle of the first
% pair; back again, and cast off: lead down one Pair more, and cast up.  *Sett cross
% Partners & run the Heys, sett and turn your partner.

% @@@@@@@@@@@@@@@@@@@@@@@@@@@@@@@@@@

